staging/svg/step-2.svg

<?xml version="1.0" encoding="UTF-8"?>
<svg width="111px" height="175px" viewBox="0 0 111 175" version="1.1" xmlns="http://www.w3.org/2000/svg" xmlns:xlink="http://www.w3.org/1999/xlink">
    <!-- Generator: Sketch 55.2 (78181) - https://sketchapp.com -->
    <title>2</title>
    <desc>Created with Sketch.</desc>
    <g id="final" stroke="none" stroke-width="1" fill="none" fill-rule="evenodd" fill-opacity="0.15">
        <g id="mobile_V1" transform="translate(-248.000000, -1189.000000)" fill="#439417" fill-rule="nonzero">
            <g id="2" transform="translate(248.000000, 1189.000000)">
                <path d="M2.7,157.41 C2.7,147.869952 4.9499775,139.500036 9.45,132.3 C13.9500225,125.099964 19.3499685,118.350032 25.65,112.05 C33.3900387,104.309961 40.7249653,97.6500279 47.655,92.07 C54.5850346,86.4899721 60.6599739,81.3600234 65.88,76.68 C71.1000261,71.9999766 75.1949851,67.3650229 78.165,62.775 C81.1350148,58.1849771 82.62,52.9200297 82.62,46.98 C82.62,44.2799865 82.1250049,41.4900144 81.135,38.61 C80.144995,35.7299856 78.4800117,33.0750122 76.14,30.645 C73.7999883,28.2149878 70.830018,26.1900081 67.23,24.57 C63.629982,22.9499919 59.130027,22.14 53.73,22.14 C48.8699757,22.14 44.5500189,22.8149933 40.77,24.165 C36.9899811,25.5150067 33.6600144,27.1799901 30.78,29.16 C27.8999856,31.1400099 25.4700099,33.3899874 23.49,35.91 C21.5099901,38.4300126 19.7100081,40.7699892 18.09,42.93 L-9.9475983e-14,29.97 C1.800009,26.7299838 4.27498425,23.3550175 7.425,19.845 C10.5750157,16.3349825 14.3549779,13.0950149 18.765,10.125 C23.175022,7.15498515 28.3949698,4.72500945 34.425,2.835 C40.4550301,0.94499055 47.4299604,0 55.35,0 C64.5300459,0 72.4949662,1.2599874 79.245,3.78 C85.9950337,6.3000126 91.5299784,9.67497885 95.85,13.905 C100.170022,18.1350212 103.409989,22.949973 105.57,28.35 C107.730011,33.750027 108.81,39.4199703 108.81,45.36 C108.81,51.6600315 107.730011,57.5549725 105.57,63.045 C103.409989,68.5350275 100.530018,73.6199766 96.93,78.3 C93.329982,82.9800234 89.2350229,87.4349789 84.645,91.665 C80.054977,95.8950212 75.3300243,99.8999811 70.47,103.68 C64.7099712,108.180022 59.3550247,112.499979 54.405,116.64 C49.4549752,120.780021 45.1350184,124.82998 41.445,128.79 C37.7549815,132.75002 34.8750103,136.70998 32.805,140.67 C30.7349896,144.63002 29.7,148.679979 29.7,152.82 L110.7,152.82 L110.7,174.96 L2.7,174.96 L2.7,157.41 Z"></path>
            </g>
        </g>
    </g>
</svg>

<svg xmlns="http://www.w3.org/2000/svg" width="111" height="175">
  <path fill="#439417" fill-opacity=".15" fill-rule="nonzero" d="M2.7 157.41c0-9.54 2.25-17.91 6.75-25.11 4.5-7.2 9.9-13.95 16.2-20.25 7.74-7.74 15.075-14.4 22.005-19.98S60.66 81.36 65.88 76.68c5.22-4.68 9.315-9.315 12.285-13.905 2.97-4.59 4.455-9.855 4.455-15.795 0-2.7-.495-5.49-1.485-8.37-.99-2.88-2.655-5.535-4.995-7.965-2.34-2.43-5.31-4.455-8.91-6.075-3.6-1.62-8.1-2.43-13.5-2.43-4.86 0-9.18.675-12.96 2.025-3.78 1.35-7.11 3.015-9.99 4.995s-5.31 4.23-7.29 6.75c-1.98 2.52-3.78 4.86-5.4 7.02L0 29.97c1.8-3.24 4.275-6.615 7.425-10.125 3.15-3.51 6.93-6.75 11.34-9.72 4.41-2.97 9.63-5.4 15.66-7.29C40.455.945 47.43 0 55.35 0c9.18 0 17.145 1.26 23.895 3.78C85.995 6.3 91.53 9.675 95.85 13.905s7.56 9.045 9.72 14.445c2.16 5.4 3.24 11.07 3.24 17.01 0 6.3-1.08 12.195-3.24 17.685A62.322 62.322 0 0 1 96.93 78.3c-3.6 4.68-7.695 9.135-12.285 13.365A222.35 222.35 0 0 1 70.47 103.68c-5.76 4.5-11.115 8.82-16.065 12.96-4.95 4.14-9.27 8.19-12.96 12.15-3.69 3.96-6.57 7.92-8.64 11.88-2.07 3.96-3.105 8.01-3.105 12.15h81v22.14H2.7v-17.55z"/>
</svg>
